src/static/media/react.svg

<svg height="96" viewBox="0 0 96 96" width="96" xmlns="http://www.w3.org/2000/svg"><path d="m67.3320424 38.6109357c-.6224257-.2142392-1.2673861-.4169441-1.9314635-.6086486.1091489-.4454595.2093264-.8851517.2983971-1.3173681 1.462081-7.0971267.5061213-12.8146215-2.758196-14.6970641-3.1300709-1.8050131-8.2490627.0770022-13.4189981 4.5762386-.4971504.4326435-.9956892.8907053-1.4940139 1.3707676-.332039-.3176208-.6635435-.6245616-.9941936-.9181526-5.4182435-4.8108765-10.8491962-6.8382455-14.1103096-4.9503562-3.1270804 1.8102463-4.0531361 7.1852361-2.7370497 13.9112357.127091.6496595.2756487 1.3130961.4436439 1.9876398-.7686338.2181907-1.5106746.4507993-2.2206757.6982531-6.3523092 2.2146948-10.4091833 5.6856685-10.4091833 9.2859761 0 3.7184278 4.3550575 7.448069 10.9714811 9.7095417.5221412.1784616 1.0639335.3472043 1.6222797.5074031-.1812382.7295454-.3388738 1.444459-.471198 2.1417511-1.2548905 6.6092681-.2749011 11.8572734 2.8438489 13.6560924 3.2213841 1.8576653 8.6277727-.0517976 13.8922254-4.6535611.4160897-.3637582.8336745-.7495168 1.2520069-1.1538584.5422197.5221411 1.0835845 1.0163009 1.6220662 1.4798093 5.0992343 4.3880585 10.1355638 6.1599642 13.2514301 4.3561259 3.2181802-1.8630057 4.2640648-7.5006146 2.9062195-14.3596857-.103702-.5238501-.224385-1.0590211-.359913-1.6036966.3796711-.1122464.7524002-.2281233 1.115838-.3485927 6.8784022-2.278988 11.3537152-5.96324 11.3537152-9.731329 0-3.613337-4.1877033-7.1076998-10.6679576-9.3385213zm-1.4918779 16.636858c-.3280871.1086145-.6647183.2135984-1.0077572.3153778-.7593422-2.4039429-1.7841872-4.9601817-3.0383302-7.6012188 1.1967919-2.5781328 2.1820141-5.1016907 2.9201034-7.4900411.613775.1776071 1.2095009.3649329 1.7835467.5626182 5.5522762 1.9113851 8.9390923 4.7373985 8.9390923 6.9149272 0 2.319465-3.6576586 5.3304546-9.596655 7.2983367zm-2.4642847 4.8830723c.600425 3.0329904.6861847 5.7751664.2884646 7.9188399-.3573499 1.9262304-1.0760018 3.2104905-1.9645711 3.7248356-1.8908799 1.0944781-5.9345105-.3281939-10.2954422-4.080904-.499927-.4301873-1.0034852-.8895304-1.5086454-1.3756807 1.6906313-1.8490144 3.3803013-3.9985615 5.0293877-6.385844 2.9005592-.2573857 5.64092-.6781749 8.1260302-1.2526477.1223918.4937327.2311134.9779602.3247762 1.4514009zm-24.9205236 11.4545342c-1.8474124.6524362-3.3187849.671126-4.2082086.1582762-1.8925885-1.0915945-2.6793781-5.3052499-1.6061531-10.9574904.1229259-.64731.2692408-1.3122414.4378767-1.9919116 2.4578767.5435011 5.1781589.9345996 8.0856601 1.1703054 1.6601935 2.3360191 3.3986708 4.4832166 5.1506047 6.3633096-.3827683.369525-.7640416.7213219-1.1431786 1.0528263-2.327902 2.0348452-4.6607167 3.4785565-6.7166012 4.2046845zm-8.6548998-16.351811c-2.9256571-.9999607-5.3417752-2.2996001-6.9979103-3.7177866-1.4881399-1.2744347-2.2394723-2.5396847-2.2394723-3.5663456 0-2.184791 3.2572686-4.9715024 8.6898232-6.865586.6591646-.2298319 1.3491942-.4464206 2.0652828-.6498731.7507983 2.4422839 1.7357004 4.9957457 2.9242687 7.5778298-1.2039473 2.620425-2.2028402 5.2145777-2.9610077 7.6854834-.5105001-.1467419-1.0050872-.3011735-1.4809844-.4637219zm2.9012001-19.7482387c-1.1275859-5.7626708-.3787099-10.1098252 1.5057618-11.2006721 2.0072909-1.1620821 6.445972.4948006 11.124204 4.6487552.2990377.2655028.5992503.5433943.9003172.8308977-1.7432832 1.8718695-3.4658473 4.0029406-5.1113025 6.3251822-2.8218484.2615513-5.5230136.6816993-8.006522 1.2443174-.1561405-.628086-.2944454-1.2451718-.4124585-1.8484804zm25.881289 6.3907569c-.5936964-1.0254859-1.2031996-2.0267283-1.8245571-3.0006301 1.9143755.2420069 3.7485446.5632589 5.4710021.9563868-.517122 1.6573098-1.1616546 3.3901267-1.9203563 5.1665177-.5442485-1.0332822-1.1198962-2.0751083-1.7260887-3.1222744zm-10.5543234-10.2799563c1.1822672 1.2808427 2.366243 2.7108839 3.5307816 4.2624625-1.1735098-.0554287-2.361544-.0842645-3.5594035-.0842645-1.1865391 0-2.3658157.028195-3.5320631.0826626 1.1657133-1.5371608 2.3599418-2.9652796 3.560685-4.2608606zm-10.6219272 10.2976849c-.5930559 1.0283695-1.1580236 2.0645353-1.6937284 3.1026235-.7464195-1.7701967-1.3849719-3.5109168-1.9065792-5.1917225 1.7118843-.3830887 3.5374029-.6963307 5.4396033-.9337453-.6301152.982873-1.2446378 1.9914846-1.8392957 3.0226308zm1.8940837 15.3169266c-1.9653187-.2192587-3.8182847-.5163738-5.5297418-.8888897.5299376-1.7108163 1.1825875-3.4887023 1.9448133-5.2970264.5370932 1.0373407 1.1043037 2.0739338 1.7009908 3.104546h.0001067c.6077943 1.0499428 1.2374823 2.0784188 1.883831 3.0813701zm8.7987584 7.2727045c-1.2148409-1.3107464-2.4265845-2.760652-3.6100264-4.3202407 1.1488388.0450692 2.3201056.068138 3.5104896.068138 1.2229575 0 2.4319243-.0275543 3.6218811-.0805268-1.1683836 1.5876771-2.3480872 3.0398255-3.5223443 4.3326295zm12.2339542-13.5507881c.8019551 1.8278681 1.4779941 3.5964628 2.0147668 5.2781229-1.739652.3968655-3.6179293.7165158-5.5969184.9540373.622853-.9870385 1.2376957-2.0054757 1.8418587-3.0530689.611212-1.0598749 1.1915587-2.121352 1.7402929-3.1790913zm-3.9605414 1.8985692c-.9379103 1.6262311-1.9008119 3.1786641-2.8783448 4.6440563-1.7804496.1273043-3.619852.1928791-5.4946048.1928791-1.8671702 0-3.6833976-.0579921-5.4323409-.1715196-1.0169421-1.4846154-2.0007762-3.0416407-2.932706-4.6514252h.0002136c-.9294734-1.6054053-1.7849349-3.2243745-2.5600834-4.8342652.7749349-1.6136292 1.6281536-3.2344137 2.552287-4.8369356l-.0002135.0003204c.9265897-1.6067939 1.9017732-3.1562366 2.9093166-4.6315606 1.7844009-.1348874 3.6141916-.205268 5.4634198-.205268h.0001068c1.8575583 0 3.6896984.0709146 5.4735652.2069768.9921644 1.4645373 1.9607264 3.0089604 2.8909474 4.6159679.9407944 1.6250566 1.8050133 3.2350542 2.5865695 4.8140805-.7792066 1.6061529-1.6415032 3.2323845-2.5781325 4.8566932zm5.2875214-28.6228245c2.0092134 1.1586645 2.7905559 5.8315564 1.5281897 11.95916-.0805268.3909919-.171199.7892461-.2696682 1.1928402-2.4892755-.574366-5.1923632-1.0017764-8.0224345-1.2672792-1.6486594-2.3477667-3.3571261-4.4821485-5.0720009-6.3299882.4610522-.443537.9214636-.8664618 1.3799525-1.2655704 4.4296033-3.8549168 8.5696741-5.3769122 10.4559614-4.2891624zm-13.660471 18.3832383c2.9589783 0 5.357795 2.3987098 5.357795 5.357795 0 2.9589783-2.3988167 5.3577954-5.357795 5.3577954-2.9589785 0-5.3577951-2.3988171-5.3577951-5.3577954 0-2.9590852 2.3988166-5.357795 5.3577951-5.357795z" fill="#fff"/></svg>

<?xml version="1.0" encoding="UTF-8"?>
<svg width="96px" height="96px" viewBox="0 0 96 96" version="1.1" xmlns="http://www.w3.org/2000/svg" xmlns:xlink="http://www.w3.org/1999/xlink">
    <!-- Generator: Sketch 52.4 (67378) - http://www.bohemiancoding.com/sketch -->
    <title>react</title>
    <desc>Created with Sketch.</desc>
    <g id="react" stroke="none" stroke-width="1" fill="none" fill-rule="evenodd">
        <path d="M67.3320424,38.6109357 C66.7096167,38.3966965 66.0646563,38.1939916 65.4005789,38.0022871 C65.5097278,37.5568276 65.6099053,37.1171354 65.698976,36.684919 C67.161057,29.5877923 66.2050973,23.8702975 62.94078,21.9878549 C59.8107091,20.1828418 54.6917173,22.0648571 49.5217819,26.5640935 C49.0246315,26.996737 48.5260927,27.4547988 48.027768,27.9348611 C47.695729,27.6172403 47.3642245,27.3102995 47.0335744,27.0167085 C41.6153309,22.205832 36.1843782,20.178463 32.9232648,22.0663523 C29.7961844,23.8765986 28.8701287,29.2515884 30.1862151,35.977588 C30.3133061,36.6272475 30.4618638,37.2906841 30.629859,37.9652278 C29.8612252,38.1834185 29.1191844,38.4160271 28.4091833,38.6634809 C22.0568741,40.8781757 18,44.3491494 18,47.949457 C18,51.6678848 22.3550575,55.397526 28.9714811,57.6589987 C29.4936223,57.8374603 30.0354146,58.006203 30.5937608,58.1664018 C30.4125226,58.8959472 30.254887,59.6108608 30.1225628,60.3081529 C28.8676723,66.917421 29.8476617,72.1654263 32.9664117,73.9642453 C36.1877958,75.8219106 41.5941844,73.9124477 46.8586371,69.3106842 C47.2747268,68.946926 47.6923116,68.5611674 48.110644,68.1568258 C48.6528637,68.6789669 49.1942285,69.1731267 49.7327102,69.6366351 C54.8319445,74.0246936 59.868274,75.7965993 62.9841403,73.992761 C66.2023205,72.1297553 67.2482051,66.4921464 65.8903598,59.6330753 C65.7866578,59.1092252 65.6659748,58.5740542 65.5304468,58.0293787 C65.9101179,57.9171323 66.282847,57.8012554 66.6462848,57.680786 C73.524687,55.401798 78,51.717546 78,47.949457 C78,44.33612 73.8122967,40.8417572 67.3320424,38.6109357 Z M65.8401645,55.2477937 C65.5120774,55.3564082 65.1754462,55.4613921 64.8324073,55.5631715 C64.0730651,53.1592286 63.0482201,50.6029898 61.7940771,47.9619527 C62.990869,45.3838199 63.9760912,42.860262 64.7141805,40.4719116 C65.3279555,40.6495187 65.9236814,40.8368445 66.4977272,41.0345298 C72.0500034,42.9459149 75.4368195,45.7719283 75.4368195,47.949457 C75.4368195,50.268922 71.7791609,53.2799116 65.8401645,55.2477937 Z M63.3758798,60.130866 C63.9763048,63.1638564 64.0620645,65.9060324 63.6643444,68.0497059 C63.3069945,69.9759363 62.5883426,71.2601964 61.6997733,71.7745415 C59.8088934,72.8690196 55.7652628,71.4463476 51.4043311,67.6936375 C50.9044041,67.2634502 50.4008459,66.8041071 49.8956857,66.3179568 C51.586317,64.4689424 53.275987,62.3193953 54.9250734,59.9321128 C57.8256326,59.6747271 60.5659934,59.2539379 63.0511036,58.6794651 C63.1734954,59.1731978 63.282217,59.6574253 63.3758798,60.130866 Z M38.4553562,71.5854002 C36.6079438,72.2378364 35.1365713,72.2565262 34.2471476,71.7436764 C32.3545591,70.6520819 31.5677695,66.4384265 32.6409945,60.786186 C32.7639204,60.138876 32.9102353,59.4739446 33.0788712,58.7942744 C35.5367479,59.3377755 38.2570301,59.728874 41.1645313,59.9645798 C42.8247248,62.3005989 44.5632021,64.4477964 46.315136,66.3278894 C45.9323677,66.6974144 45.5510944,67.0492113 45.1719574,67.3807157 C42.8440554,69.4155609 40.5112407,70.8592722 38.4553562,71.5854002 Z M29.8004564,55.2335892 C26.8747993,54.2336285 24.4586812,52.9339891 22.8025461,51.5158026 C21.3144062,50.2413679 20.5630738,48.9761179 20.5630738,47.949457 C20.5630738,45.764666 23.8203424,42.9779546 29.252897,41.083871 C29.9120616,40.8540391 30.6020912,40.6374504 31.3181798,40.4339979 C32.0689781,42.8762818 33.0538802,45.4297436 34.2424485,48.0118277 C33.0385012,50.6322527 32.0396083,53.2264054 31.2814408,55.6973111 C30.7709407,55.5505692 30.2763536,55.3961376 29.8004564,55.2335892 Z M32.7016565,35.4853505 C31.5740706,29.7226797 32.3229466,25.3755253 34.2074183,24.2846784 C36.2147092,23.1225963 40.6533903,24.779479 45.3316223,28.9334336 C45.63066,29.1989364 45.9308726,29.4768279 46.2319395,29.7643313 C44.4886563,31.6362008 42.7660922,33.7672719 41.120637,36.0895135 C38.2987886,36.3510648 35.5976234,36.7712128 33.114115,37.3338309 C32.9579745,36.7057449 32.8196696,36.0886591 32.7016565,35.4853505 Z M58.5829455,41.8761074 C57.9892491,40.8506215 57.3797459,39.8493791 56.7583884,38.8754773 C58.6727639,39.1174842 60.506933,39.4387362 62.2293905,39.8318641 C61.7122685,41.4891739 61.0677359,43.2219908 60.3090342,44.9983818 C59.7647857,43.9650996 59.189138,42.9232735 58.5829455,41.8761074 Z M48.0286221,31.5961511 C49.2108893,32.8769938 50.3948651,34.307035 51.5594037,35.8586136 C50.3858939,35.8031849 49.1978597,35.7743491 48.0000002,35.7743491 C46.8134611,35.7743491 45.6341845,35.8025441 44.4679371,35.8570117 C45.6336504,34.3198509 46.8278789,32.8917321 48.0286221,31.5961511 Z M37.4066949,41.893836 C36.813639,42.9222055 36.2486713,43.9583713 35.7129665,44.9964595 C34.966547,43.2262628 34.3279946,41.4855427 33.8063873,39.804737 C35.5182716,39.4216483 37.3437902,39.1084063 39.2459906,38.8709917 C38.6158754,39.8538647 38.0013528,40.8624763 37.4066949,41.8936225 L37.4066949,41.893836 Z M39.3007786,57.2107626 C37.3354599,56.9915039 35.4824939,56.6943888 33.7710368,56.3218729 C34.3009744,54.6110566 34.9536243,52.8331706 35.7158501,51.0248465 C36.2529433,52.0621872 36.8201538,53.0987803 37.4168409,54.1293925 L37.4169476,54.1293925 C38.0247419,55.1793353 38.6544299,56.2078113 39.3007786,57.2107626 Z M48.099537,64.4834671 C46.8846961,63.1727207 45.6729525,61.7228151 44.4895106,60.1632264 C45.6383494,60.2082956 46.8096162,60.2313644 48.0000002,60.2313644 C49.2229577,60.2313644 50.4319245,60.2038101 51.6218813,60.1508376 C50.4534977,61.7385147 49.2737941,63.1906631 48.099537,64.4834671 Z M60.3334912,50.932679 C61.1354463,52.7605471 61.8114853,54.5291418 62.348258,56.2108019 C60.608606,56.6076674 58.7303287,56.9273177 56.7513396,57.1648392 C57.3741926,56.1778007 57.9890353,55.1593635 58.5931983,54.1117703 C59.2044103,53.0518954 59.784757,51.9904183 60.3334912,50.932679 Z M56.3729498,52.8312482 C55.4350395,54.4574793 54.4721379,56.0099123 53.494605,57.4753045 C51.7141554,57.6026088 49.874753,57.6681836 48.0000002,57.6681836 C46.13283,57.6681836 44.3166026,57.6101915 42.5676593,57.496664 C41.5507172,56.0120486 40.5668831,54.4550233 39.6349533,52.8452388 L39.6351669,52.8452388 C38.7056935,51.2398335 37.850232,49.6208643 37.0750835,48.0109736 C37.8500184,46.3973444 38.7032371,44.7765599 39.6273705,43.174038 L39.627157,43.1743584 C40.5537467,41.5675645 41.5289302,40.0181218 42.5364736,38.5427978 C44.3208745,38.4079104 46.1506652,38.3375298 47.9998934,38.3375298 L48.0000002,38.3375298 C49.8575585,38.3375298 51.6896986,38.4084444 53.4735654,38.5445066 C54.4657298,40.0090439 55.4342918,41.553467 56.3645128,43.1604745 C57.3053072,44.7855311 58.1695261,46.3955287 58.9510823,47.974555 C58.1718757,49.5807079 57.3095791,51.2069395 56.3729498,52.8312482 Z M61.6604712,24.2084237 C63.6696846,25.3670882 64.4510271,30.0399801 63.1886609,36.1675837 C63.1081341,36.5585756 63.0174619,36.9568298 62.9189927,37.3604239 C60.4297172,36.7860579 57.7266295,36.3586475 54.8965582,36.0931447 C53.2478988,33.745378 51.5394321,31.6109962 49.8245573,29.7631565 C50.2856095,29.3196195 50.7460209,28.8966947 51.2045098,28.4975861 C55.6341131,24.6426693 59.7741839,23.1206739 61.6604712,24.2084237 Z M48.0000002,42.591662 C50.9589785,42.591662 53.3577952,44.9903718 53.3577952,47.949457 C53.3577952,50.9084353 50.9589785,53.3072524 48.0000002,53.3072524 C45.0410217,53.3072524 42.6422051,50.9084353 42.6422051,47.949457 C42.6422051,44.9903718 45.0410217,42.591662 48.0000002,42.591662 Z" id="Shape" fill="#FFFFFF" fill-rule="nonzero"></path>
    </g>
</svg>
